Newaita/actions/22/amarok_change_language.svg

<svg height="22" viewBox="0 0 22 22" width="22" xmlns="http://www.w3.org/2000/svg"><g fill="#424242"><path d="m7.277344 9.269531c-.035156 0-.066406 0-.097656 0-.011719 0-.023438 0-.035157 0-.019531 0-.042969 0-.0625.003907-.011719 0-.027343 0-.039062 0-.019531 0-.039063.003906-.058594.003906-.015625 0-.027344 0-.039063 0-.019531.003906-.039062.003906-.058593.007812-.011719 0-.023438 0-.039063 0-.019531.003906-.039062.003906-.058594.007813-.011718 0-.023437 0-.035156.003906-.019531 0-.039062.003906-.058594.003906-.011718.003907-.023437.003907-.039062.007813-.015625 0-.035156.003906-.054688.007812-.011718 0-.023437 0-.035156.003906-.023437.003907-.042968.003907-.0625.007813-.007812.003906-.019531.003906-.03125.007813-.019531 0-.039062.003906-.0625.007812-.007812.003906-.019531.003906-.03125.007812-.019531.003907-.042968.007813-.0625.011719-.007812.003907-.019531.003907-.027344.003907-.023437.007812-.050781.011718-.074218.019531-.003906 0-.007813 0-.015625 0-.089844.023437-.179688.046875-.269531.074219h-.003907c-.027343.007812-.054687.015624-.082031.023437-.003906.003906-.007812.003906-.015625.007813-.023437.007812-.046875.015624-.070313.023437-.003906 0-.011718.003906-.015624.003906-.023438.007813-.046876.015625-.070313.023438-.003906.003906-.007813.003906-.015625.007812-.019531.007813-.042969.015625-.066406.027344-.003906 0-.011719.003906-.015625.003906-.023438.007813-.046875.019531-.066407.027344-.007812.003906-.011718.003906-.015624.007813-.023438.007812-.046876.019531-.070313.027343-.003906.003907-.003906.003907-.007813.007813-.027343.007812-.050781.019531-.074218.03125 0 0-.003906.003906-.007813.003906-.023437.011719-.050781.023438-.074219.035156-.210937.105469-.40625.226563-.582031.363282-.019531.015624-.042969.03125-.066406.050781-.019531.015625-.039063.035156-.0625.050781-.566406.480469-.910156 1.113281-.910156 1.808594v8.1875h1.820312v-3.640625h3.640625v3.640625h1.816406v-6.367188h-1.816406v.910156h-3.640625v-2.730468c0-.402344.515625-.738282 1.234375-.863282.015625 0 .027344-.003906.042969-.003906.171875-.027344.351563-.042968.542969-.042968.1875 0 .371094.015624.542968.042968.011719 0 .027344.003906.042969.003906.113281.019532.21875.046876.324219.074219v-1.855469c-.003906 0-.011719 0-.015625 0-.007813-.003906-.019531-.003906-.03125-.007812-.019531-.003906-.039063-.007812-.058594-.007812-.011719-.003907-.023437-.003907-.035156-.007813-.019531-.003906-.039063-.003906-.058594-.007813-.011719-.003906-.023437-.003906-.035156-.003906-.019531-.003906-.039063-.007812-.058594-.007812-.011719-.003906-.023437-.003906-.035156-.007813-.019531 0-.039063-.003906-.058594-.003906-.011719-.003906-.027343-.003906-.039062-.003906-.019531-.003907-.039063-.003907-.054688-.007813-.015625 0-.027343 0-.042969 0-.015624-.003906-.035156-.003906-.054687-.007812-.011719 0-.027344 0-.039063 0-.019531 0-.039062-.003906-.058593-.003906-.015625 0-.027344 0-.039063 0-.023437-.003907-.042968-.003907-.066406-.003907-.007812 0-.019531 0-.03125 0-.03125 0-.066406 0-.097656 0zm0 0"/><path d="m13.644531 1.992188v3.183593h-4.546875v1.816407h3.777344c-1.023438 1.425781-2.105469 2.507812-3.507812 3.910156l1.277343 1.28125c1.113281-1.113282 2.085938-2.09375 3-3.226563v3.949219h1.820313v-3.933594c.894531 1.140625 1.867187 2.160156 3.019531 3.230469l1.234375-1.324219c-1.402344-1.304687-2.46875-2.453125-3.480469-3.886718h3.773438v-1.816407h-4.546875v-3.183593zm0 0"/></g></svg>

<svg xmlns="http://www.w3.org/2000/svg" xmlns:xlink="http://www.w3.org/1999/xlink" width="22px" height="22px" viewBox="0 0 22 22" version="1.1">
<g id="surface1">
     <defs>
  <style id="current-color-scheme" type="text/css">
   .ColorScheme-Text { color:#424242; } .ColorScheme-Highlight { color:#eeeeee; }
  </style>
 </defs>
<path style="fill:currentColor" class="ColorScheme-Text" d="M 7.277344 9.269531 C 7.242188 9.269531 7.210938 9.269531 7.179688 9.269531 C 7.167969 9.269531 7.15625 9.269531 7.144531 9.269531 C 7.125 9.269531 7.101562 9.269531 7.082031 9.273438 C 7.070312 9.273438 7.054688 9.273438 7.042969 9.273438 C 7.023438 9.273438 7.003906 9.277344 6.984375 9.277344 C 6.96875 9.277344 6.957031 9.277344 6.945312 9.277344 C 6.925781 9.28125 6.90625 9.28125 6.886719 9.285156 C 6.875 9.285156 6.863281 9.285156 6.847656 9.285156 C 6.828125 9.289062 6.808594 9.289062 6.789062 9.292969 C 6.777344 9.292969 6.765625 9.292969 6.753906 9.296875 C 6.734375 9.296875 6.714844 9.300781 6.695312 9.300781 C 6.683594 9.304688 6.671875 9.304688 6.65625 9.308594 C 6.640625 9.308594 6.621094 9.3125 6.601562 9.316406 C 6.589844 9.316406 6.578125 9.316406 6.566406 9.320312 C 6.542969 9.324219 6.523438 9.324219 6.503906 9.328125 C 6.496094 9.332031 6.484375 9.332031 6.472656 9.335938 C 6.453125 9.335938 6.433594 9.339844 6.410156 9.34375 C 6.402344 9.347656 6.390625 9.347656 6.378906 9.351562 C 6.359375 9.355469 6.335938 9.359375 6.316406 9.363281 C 6.308594 9.367188 6.296875 9.367188 6.289062 9.367188 C 6.265625 9.375 6.238281 9.378906 6.214844 9.386719 C 6.210938 9.386719 6.207031 9.386719 6.199219 9.386719 C 6.109375 9.410156 6.019531 9.433594 5.929688 9.460938 L 5.925781 9.460938 C 5.898438 9.46875 5.871094 9.476562 5.84375 9.484375 C 5.839844 9.488281 5.835938 9.488281 5.828125 9.492188 C 5.804688 9.5 5.78125 9.507812 5.757812 9.515625 C 5.753906 9.515625 5.746094 9.519531 5.742188 9.519531 C 5.71875 9.527344 5.695312 9.535156 5.671875 9.542969 C 5.667969 9.546875 5.664062 9.546875 5.65625 9.550781 C 5.636719 9.558594 5.613281 9.566406 5.589844 9.578125 C 5.585938 9.578125 5.578125 9.582031 5.574219 9.582031 C 5.550781 9.589844 5.527344 9.601562 5.507812 9.609375 C 5.5 9.613281 5.496094 9.613281 5.492188 9.617188 C 5.46875 9.625 5.445312 9.636719 5.421875 9.644531 C 5.417969 9.648438 5.417969 9.648438 5.414062 9.652344 C 5.386719 9.660156 5.363281 9.671875 5.339844 9.683594 C 5.339844 9.683594 5.335938 9.6875 5.332031 9.6875 C 5.308594 9.699219 5.28125 9.710938 5.257812 9.722656 C 5.046875 9.828125 4.851562 9.949219 4.675781 10.085938 C 4.65625 10.101562 4.632812 10.117188 4.609375 10.136719 C 4.589844 10.152344 4.570312 10.171875 4.546875 10.1875 C 3.980469 10.667969 3.636719 11.300781 3.636719 11.996094 L 3.636719 20.183594 L 5.457031 20.183594 L 5.457031 16.542969 L 9.097656 16.542969 L 9.097656 20.183594 L 10.914062 20.183594 L 10.914062 13.816406 L 9.097656 13.816406 L 9.097656 14.726562 L 5.457031 14.726562 L 5.457031 11.996094 C 5.457031 11.59375 5.972656 11.257812 6.691406 11.132812 C 6.707031 11.132812 6.71875 11.128906 6.734375 11.128906 C 6.90625 11.101562 7.085938 11.085938 7.277344 11.085938 C 7.464844 11.085938 7.648438 11.101562 7.820312 11.128906 C 7.832031 11.128906 7.847656 11.132812 7.863281 11.132812 C 7.976562 11.152344 8.082031 11.179688 8.1875 11.207031 L 8.1875 9.351562 C 8.183594 9.351562 8.175781 9.351562 8.171875 9.351562 C 8.164062 9.347656 8.152344 9.347656 8.140625 9.34375 C 8.121094 9.339844 8.101562 9.335938 8.082031 9.335938 C 8.070312 9.332031 8.058594 9.332031 8.046875 9.328125 C 8.027344 9.324219 8.007812 9.324219 7.988281 9.320312 C 7.976562 9.316406 7.964844 9.316406 7.953125 9.316406 C 7.933594 9.3125 7.914062 9.308594 7.894531 9.308594 C 7.882812 9.304688 7.871094 9.304688 7.859375 9.300781 C 7.839844 9.300781 7.820312 9.296875 7.800781 9.296875 C 7.789062 9.292969 7.773438 9.292969 7.761719 9.292969 C 7.742188 9.289062 7.722656 9.289062 7.707031 9.285156 C 7.691406 9.285156 7.679688 9.285156 7.664062 9.285156 C 7.648438 9.28125 7.628906 9.28125 7.609375 9.277344 C 7.597656 9.277344 7.582031 9.277344 7.570312 9.277344 C 7.550781 9.277344 7.53125 9.273438 7.511719 9.273438 C 7.496094 9.273438 7.484375 9.273438 7.472656 9.273438 C 7.449219 9.269531 7.429688 9.269531 7.40625 9.269531 C 7.398438 9.269531 7.386719 9.269531 7.375 9.269531 C 7.34375 9.269531 7.308594 9.269531 7.277344 9.269531 Z M 7.277344 9.269531 "/>
     <defs>
  <style id="current-color-scheme" type="text/css">
   .ColorScheme-Text { color:#424242; } .ColorScheme-Highlight { color:#eeeeee; }
  </style>
 </defs>
<path style="fill:currentColor" class="ColorScheme-Text" d="M 13.644531 1.992188 L 13.644531 5.175781 L 9.097656 5.175781 L 9.097656 6.992188 L 12.875 6.992188 C 11.851562 8.417969 10.769531 9.5 9.367188 10.902344 L 10.644531 12.183594 C 11.757812 11.070312 12.730469 10.089844 13.644531 8.957031 L 13.644531 12.90625 L 15.464844 12.90625 L 15.464844 8.972656 C 16.359375 10.113281 17.332031 11.132812 18.484375 12.203125 L 19.71875 10.878906 C 18.316406 9.574219 17.25 8.425781 16.238281 6.992188 L 20.011719 6.992188 L 20.011719 5.175781 L 15.464844 5.175781 L 15.464844 1.992188 Z M 13.644531 1.992188 "/>
</g>
</svg>
